X:124
T:Lovely Fanny. Ru2.124
B:RUTHERFORD Complete Collection of 200 Country Dances Vol.2; 1759.
Z:vmp.Steve Mansfield 2015 www.village-music-project.org.uk
M:C|
L:1/8
W:The 1st Cou. cast off & Hands across with the 3d Cou. .|
W:Cast up & Hands across with the 2d Cou. :| Cross
W:over two Cou. lead up to the Top foot it & cast off :|
W:Set Corners & turn .|| Set the other Corners and
W:turn :|| Lead out each Side & turn your Partner :|
Q:1/2=60
K:Hp
e | cA c/d/e c2Ad | BG B/c/d/c/ B2GB | cA a/g/f/e/ Tc2AB/c/ | d/c/B/A/ G/A/B/G/ A2A :|
|: f/g/ | ae c/d/e/c/ aeef | gg a/g/f/e/ gd Bf/g/ | a/g/f/e/ d/c/B/A/ aeed | c/d/e/c/ B/c/d/B/ A2A :|

